src/assets/svg/bus-green.svg

<svg width="38" height="36" viewBox="0 0 38 36" fill="none" xmlns="http://www.w3.org/2000/svg">
<path fill-rule="evenodd" clip-rule="evenodd" d="M1.72727 0C1.26917 0 0.829833 0.189626 0.505906 0.527164C0.18198 0.864701 0 1.3225 0 1.79985V26.9977C0 29.4347 1.54936 31.4938 3.67736 32.1669C3.99415 33.2558 4.63296 34.2126 5.50262 34.9007C6.37227 35.5888 7.42831 35.9731 8.52 35.9986C9.61168 36.0242 10.6832 35.6897 11.5816 35.043C12.4801 34.3962 13.1594 33.4703 13.5228 32.3973H24.4772C24.8406 33.4703 25.5199 34.3962 26.4184 35.043C27.3168 35.6897 28.3883 36.0242 29.48 35.9986C30.5717 35.9731 31.6277 35.5888 32.4974 34.9007C33.367 34.2126 34.0059 33.2558 34.3226 32.1669C35.3867 31.8305 36.3188 31.1463 36.981 30.2155C37.6432 29.2846 38.0005 28.1565 38 26.9977V19.7983C38 18.6165 37.7766 17.4463 37.3426 16.3545C36.9086 15.2626 36.2724 14.2706 35.4705 13.4349C34.6685 12.5993 33.7164 11.9364 32.6686 11.4841C31.6208 11.0319 30.4978 10.7991 29.3636 10.7991H22.4545V1.79985C22.4545 1.3225 22.2726 0.864701 21.9486 0.527164C21.6247 0.189626 21.1854 0 20.7273 0H1.72727ZM24.4772 28.7976H22.4545V14.3988H29.3636C30.7379 14.3988 32.056 14.9677 33.0277 15.9803C33.9995 16.9929 34.5455 18.3663 34.5455 19.7983V26.9977C34.5454 27.475 34.3633 27.9328 34.0394 28.2702C33.5978 27.3063 32.8918 26.5005 32.0106 25.9548C31.1295 25.409 30.1128 25.1479 29.0892 25.2043C28.0655 25.2608 27.081 25.6323 26.26 26.2719C25.4391 26.9115 24.8187 27.7905 24.4772 28.7976ZM7.41518 29.3249C7.57452 29.153 7.76511 29.0159 7.97585 28.9216C8.18658 28.8273 8.41323 28.7776 8.64258 28.7755C8.87193 28.7735 9.09937 28.819 9.31165 28.9095C9.52392 29 9.71678 29.1336 9.87896 29.3026C10.0411 29.4716 10.1694 29.6726 10.2562 29.8938C10.3431 30.115 10.3868 30.352 10.3848 30.591C10.3828 30.8299 10.3352 31.0661 10.2446 31.2857C10.1541 31.5053 10.0225 31.7039 9.85755 31.8699C9.53178 32.1978 9.09547 32.3792 8.64258 32.3751C8.18969 32.371 7.75647 32.1817 7.43622 31.848C7.11597 31.5143 6.93432 31.0629 6.93038 30.591C6.92645 30.119 7.10055 29.6644 7.41518 29.3249ZM27.6364 30.5974C27.6364 30.1201 27.8183 29.6623 28.1423 29.3247C28.4662 28.9872 28.9055 28.7976 29.3636 28.7976C29.8217 28.7976 30.2611 28.9872 30.585 29.3247C30.9089 29.6623 31.0909 30.1201 31.0909 30.5974C31.0909 31.0748 30.9089 31.5326 30.585 31.8701C30.2611 32.2077 29.8217 32.3973 29.3636 32.3973C28.9055 32.3973 28.4662 32.2077 28.1423 31.8701C27.8183 31.5326 27.6364 31.0748 27.6364 30.5974Z" fill="#00C700"/>
</svg>

<svg xmlns="http://www.w3.org/2000/svg" width="38" height="36" fill="none"><path fill="#00C700" fill-rule="evenodd" d="M1.727 0C1.27 0 .83.19.506.527A1.84 1.84 0 0 0 0 1.8v25.198c0 2.437 1.55 4.496 3.677 5.169A5.4 5.4 0 0 0 5.503 34.9a5.05 5.05 0 0 0 3.017 1.098 5.03 5.03 0 0 0 3.062-.956 5.4 5.4 0 0 0 1.94-2.646h10.955a5.4 5.4 0 0 0 1.941 2.646c.899.647 1.97.981 3.062.956a5.05 5.05 0 0 0 3.017-1.098 5.4 5.4 0 0 0 1.826-2.734 5.2 5.2 0 0 0 2.658-1.952A5.55 5.55 0 0 0 38 26.999v-7.2a9.3 9.3 0 0 0-.657-3.443 9 9 0 0 0-1.873-2.92 8.6 8.6 0 0 0-2.801-1.95 8.3 8.3 0 0 0-3.305-.686h-6.91v-9a1.84 1.84 0 0 0-.505-1.272A1.7 1.7 0 0 0 20.727 0zm22.75 28.798h-2.023v-14.4h6.91c1.374 0 2.692.57 3.664 1.582a5.52 5.52 0 0 1 1.517 3.818v7.2c0 .477-.182.935-.506 1.272a5.3 5.3 0 0 0-2.028-2.315 5 5 0 0 0-2.922-.75 5.06 5.06 0 0 0-2.829 1.067 5.4 5.4 0 0 0-1.783 2.526m-17.062.527c.16-.172.35-.31.56-.403a1.67 1.67 0 0 1 1.904.38q.245.257.377.592a1.87 1.87 0 0 1-.011 1.392c-.09.22-.222.418-.387.584a1.7 1.7 0 0 1-1.215.505 1.7 1.7 0 0 1-1.207-.527 1.84 1.84 0 0 1-.506-1.257c-.004-.472.17-.927.485-1.266m20.221 1.272c0-.477.182-.935.506-1.272a1.7 1.7 0 0 1 1.222-.527c.458 0 .897.19 1.221.527s.506.795.506 1.272c0 .478-.182.936-.506 1.273a1.7 1.7 0 0 1-1.221.527c-.459 0-.898-.19-1.222-.527a1.84 1.84 0 0 1-.506-1.273" clip-rule="evenodd"/></svg>
